Printex-remake/img/icons/catalog/01.svg

<svg width="119" height="98" viewBox="0 0 119 98" fill="none" xmlns="http://www.w3.org/2000/svg">
<path d="M55.4112 79.947L114.5 44.8243L72.3527 19.2054L60.3697 17.9658L97.5584 38.6262V46.8904L41.7754 79.947H55.4112Z" fill="#E6E6E6"/>
<path d="M60.5351 20.8584L5 52.5927L42.0234 73.749L97.5585 42.0146L60.5351 20.8584Z" fill="#F2F2F2"/>
<path d="M96.5507 38.709L42.0234 69.8674L6.00778 49.2871L60.5351 18.1286L96.5507 38.709Z" stroke="black" stroke-linejoin="bevel"/>
<path d="M5 52.2622L42.0234 73.749L97.5585 41.5188" stroke="black" stroke-linejoin="bevel"/>
<path d="M62.0225 49.7829L64.86 47.5833C66.5912 46.2413 68.5717 45.2563 70.6864 44.6855L71.4324 44.4841C73.8684 43.8266 76.0773 42.5132 77.8184 40.687C79.1763 39.2626 80.8235 38.1455 82.6491 37.4107L86.8149 35.7339" stroke="black" stroke-linejoin="bevel"/>
<path d="M69.4607 26.6433L67.4702 27.2403C66.5405 27.5191 65.7761 28.1851 65.3727 29.0679V29.0679C64.8629 30.1835 63.7873 30.9342 62.5643 31.0278L62.1815 31.0571C61.1003 31.1399 60.1494 31.8035 59.6986 32.7898V32.7898C59.2479 33.7761 58.297 34.4397 57.2157 34.5225L56.6032 34.5694C55.522 34.6521 54.5711 35.3157 54.1203 36.302V36.302C53.6696 37.2883 52.7187 37.9519 51.6374 38.0347L50.971 38.0857C49.8835 38.169 48.8735 38.6808 48.1633 39.5085L47.1475 40.6924" stroke="black" stroke-linejoin="bevel"/>
<path d="M66.9814 24.9905L64.883 25.5973C63.9402 25.87 63.1596 26.534 62.7393 27.4209V27.4209C62.2114 28.5349 61.1256 29.2793 59.8962 29.37L59.3795 29.4082C58.2891 29.4887 57.3261 30.1489 56.8578 31.1369V31.1369C56.3896 32.125 55.4266 32.7852 54.3361 32.8657L53.5946 32.9204C52.5042 33.0009 51.5412 33.6612 51.0729 34.6492V34.6492C50.6047 35.6372 49.6416 36.2975 48.5512 36.378L47.7976 36.4336C46.674 36.5166 45.6267 37.0337 44.8777 37.8754L43.8418 39.0395" stroke="black" stroke-linejoin="bevel"/>
<path d="M5 55.2924L42.0234 76.2282L97.5585 44.8245" stroke="black" stroke-linejoin="bevel"/>
<path d="M5 58.0471L42.0234 79.5339L97.5585 47.3037" stroke="black" stroke-linejoin="bevel"/>
<path d="M39.0757 51.4536C37.9118 52.1256 36.3548 52.4759 34.7707 52.4759C33.1867 52.4759 31.6297 52.1256 30.4658 51.4536C29.2991 50.7801 28.8291 49.9672 28.8291 49.2571C28.8291 48.547 29.2991 47.7341 30.4658 47.0606C31.6297 46.3886 33.1867 46.0383 34.7707 46.0383C36.3548 46.0383 37.9118 46.3886 39.0757 47.0606C40.2424 47.7341 40.7124 48.547 40.7124 49.2571C40.7124 49.9672 40.2424 50.7801 39.0757 51.4536Z" stroke="black" stroke-linejoin="bevel"/>
<path fill-rule="evenodd" clip-rule="evenodd" d="M51.5354 51.5051C47.8676 49.7814 42.4616 49.9058 39.0447 51.8783C35.618 53.8566 35.4111 56.9898 38.4241 59.1075L39.7286 58.3511C37.4312 56.6521 37.6362 54.1914 40.3438 52.6283C43.0434 51.0698 47.2888 50.9475 50.231 52.2615L51.5354 51.5051Z" fill="black"/>
</svg>

<svg width="119" height="98" fill="none" xmlns="http://www.w3.org/2000/svg"><path d="M55.411 79.947L114.5 44.824 72.353 19.205l-11.983-1.24 37.188 20.661v8.264L41.775 79.947h13.636z" fill="#E6E6E6"/><path d="M60.535 20.858L5 52.593l37.023 21.156 55.535-31.734-37.023-21.157z" fill="#F2F2F2"/><path d="M96.55 38.709L42.024 69.867 6.008 49.287 60.535 18.13l36.016 20.58z" stroke="#000" stroke-linejoin="bevel"/><path d="M5 52.262L42.023 73.75l55.535-32.23" stroke="#000" stroke-linejoin="bevel"/><path d="M62.023 49.783l2.837-2.2a16.55 16.55 0 015.826-2.898l.746-.2a13.787 13.787 0 006.386-3.798 13.786 13.786 0 014.831-3.276l4.166-1.677M69.46 26.643l-1.99.597a3.37 3.37 0 00-2.097 1.828v0a3.37 3.37 0 01-2.809 1.96l-.383.03A2.98 2.98 0 0059.7 32.79v0a2.98 2.98 0 01-2.483 1.733l-.613.046a2.98 2.98 0 00-2.483 1.733v0a2.98 2.98 0 01-2.483 1.733l-.666.05a4.114 4.114 0 00-2.808 1.423l-1.015 1.184M66.981 24.99l-2.098.607a3.425 3.425 0 00-2.144 1.824v0a3.425 3.425 0 01-2.843 1.949l-.517.038c-1.09.08-2.053.74-2.521 1.729v0a3.038 3.038 0 01-2.522 1.729l-.741.054a3.037 3.037 0 00-2.522 1.73v0a3.038 3.038 0 01-2.522 1.728l-.753.056a4.338 4.338 0 00-2.92 1.441l-1.036 1.164" stroke="#000" stroke-linejoin="bevel"/><path d="M5 55.292l37.023 20.936 55.535-31.403" stroke="#000" stroke-linejoin="bevel"/><path d="M5 58.047l37.023 21.487 55.535-32.23m-58.482 4.15c-1.164.672-2.721 1.022-4.305 1.022-1.584 0-3.141-.35-4.305-1.022-1.167-.674-1.637-1.487-1.637-2.197s.47-1.523 1.637-2.196c1.164-.672 2.72-1.023 4.305-1.023 1.584 0 3.14.35 4.305 1.023 1.166.673 1.636 1.486 1.636 2.196 0 .71-.47 1.523-1.636 2.197z" stroke="#000" stroke-linejoin="bevel"/><path fill-rule="evenodd" clip-rule="evenodd" d="M51.535 51.505c-3.667-1.724-9.073-1.6-12.49.373-3.427 1.979-3.634 5.112-.62 7.23l1.304-.757c-2.298-1.699-2.093-4.16.615-5.723 2.7-1.558 6.945-1.68 9.887-.367l1.304-.756z" fill="#000"/></svg>
